X:1
T:Il Valzer di Mezzanotte First Harmony
K:Am
M:3/4
R:Waltz
L:1/8
E F^GAB|"Am"c6|"Dm"d6|"Am"cBA4-|A2BcBA|"E7"^G6|B6|"Am"AFE4-|
"Am/E"E E F^GAB|"Am"c6|"A7"e6|"Dm"d^cA4-|A2 cdcB|"Am"A2z2c2|"E7"^G2z2A2|"Am"E6-
|1E:|2"Am"!fine!Ezz4|]:[K:A]"A"c6|d2!breath!e3 f|"E7"e6-|"Bm7"e2g3f|"E7"e6|d4 ^B2|"A"c6-|czc2B2|
"F#"^A6|^A2c3A|"Bm"B6-|"D"B2c2B2|"A"A4 AB|"E"G4E2|"A"[E6A,6]|1[E6A,6]:|2"Am"z E =F^GAB||
[K:Am]"P lyrical""Am"c4 A2|"Dm"B4 ^G2|"Am"A4  E2|"E7"^G4 AB|"Am"(c2d2)c2|"Dm"(B2c2)B2|"Am"(A2B2)A2|"E7"^G|]
%%text End with a single A section; stop at the "fine".
